svg/fluentui-system-icons/ic_fluent_data_bar_vertical_add_20_filled.svg

<svg width="20" height="20" viewBox="0 0 20 20" fill="none" xmlns="http://www.w3.org/2000/svg">
<path d="M15 3C16.1046 3 17 3.89543 17 5V9.59971C16.2499 9.21628 15.4002 9 14.5 9C13.98 9 13.4768 9.07217 13 9.20703V5C13 3.89543 13.8954 3 15 3ZM9 14.5C9 15.3823 9.20778 16.2162 9.57707 16.9552C8.67562 16.7611 8 15.9595 8 15V8C8 6.89543 8.89543 6 10 6C11.1046 6 12 6.89543 12 8V9.59971C10.2192 10.5101 9 12.3627 9 14.5ZM7 11C7 9.89543 6.10457 9 5 9C3.89543 9 3 9.89543 3 11V15C3 16.1046 3.89543 17 5 17C6.10457 17 7 16.1046 7 15V11ZM19 14.5C19 16.9853 16.9853 19 14.5 19C12.0147 19 10 16.9853 10 14.5C10 12.0147 12.0147 10 14.5 10C16.9853 10 19 12.0147 19 14.5ZM15 12.5C15 12.2239 14.7761 12 14.5 12C14.2239 12 14 12.2239 14 12.5V14H12.5C12.2239 14 12 14.2239 12 14.5C12 14.7761 12.2239 15 12.5 15H14V16.5C14 16.7761 14.2239 17 14.5 17C14.7761 17 15 16.7761 15 16.5V15H16.5C16.7761 15 17 14.7761 17 14.5C17 14.2239 16.7761 14 16.5 14H15V12.5Z" fill="#212121"/>
</svg>

<svg xmlns="http://www.w3.org/2000/svg" width="20" height="20"><path d="M15 3a2 2 0 0 1 2 2v4.6a5.47 5.47 0 0 0-2.5-.6 5.5 5.5 0 0 0-1.5.207V5a2 2 0 0 1 2-2ZM9 14.5c0 .882.208 1.716.577 2.455A2 2 0 0 1 8 15V8a2 2 0 1 1 4 0v1.6a5.5 5.5 0 0 0-3 4.9ZM7 11a2 2 0 1 0-4 0v4a2 2 0 1 0 4 0v-4Zm12 3.5a4.5 4.5 0 1 1-9 0 4.5 4.5 0 0 1 9 0Zm-4-2a.5.5 0 0 0-1 0V14h-1.5a.5.5 0 0 0 0 1H14v1.5a.5.5 0 0 0 1 0V15h1.5a.5.5 0 0 0 0-1H15v-1.5Z"/></svg>
